src/components/Icon/utils/svgsOptimized/settings.svg

<?xml version="1.0" encoding="utf-8"?><svg width="24" height="24" xmlns="http://www.w3.org/2000/svg" viewBox="0 0 24 24"><path d="M19 13v-2l-1.7-.6c-.1-.4-.3-.7-.4-1l.8-1.6-1.4-1.4-1.7.8c-.3-.2-.7-.4-1-.5L13 5h-2l-.6 1.7c-.3.1-.7.3-1 .5l-1.6-.9-1.5 1.5.8 1.6c-.1.3-.3.7-.4 1L5 11v2l1.7.6c.1.4.3.7.4 1l-.8 1.6 1.4 1.4 1.6-.8c.3.2.7.3 1 .4L11 19h2l.6-1.7c.4-.1.7-.3 1-.4l1.6.8 1.4-1.4-.8-1.6c.2-.3.3-.7.4-1L19 13Zm-7 1c-1.1 0-2-.9-2-2s.9-2 2-2 2 .9 2 2-.9 2-2 2Z"/></svg>

<svg width="24" height="24" viewBox="0 0 24 24"  xmlns="http://www.w3.org/2000/svg">
<path d="M19 13V11L17.3 10.4C17.2 10 17 9.7 16.9 9.4L17.7 7.8L16.3 6.4L14.6 7.2C14.3 7 13.9 6.8 13.6 6.7L13 5H11L10.4 6.7C10.1 6.8 9.7 7 9.4 7.2L7.8 6.3L6.3 7.8L7.1 9.4C7 9.7 6.8 10.1 6.7 10.4L5 11V13L6.7 13.6C6.8 14 7 14.3 7.1 14.6L6.3 16.2L7.7 17.6L9.3 16.8C9.6 17 10 17.1 10.3 17.2L11 19H13L13.6 17.3C14 17.2 14.3 17 14.6 16.9L16.2 17.7L17.6 16.3L16.8 14.7C17 14.4 17.1 14 17.2 13.7L19 13ZM12 14C10.9 14 10 13.1 10 12C10 10.9 10.9 10 12 10C13.1 10 14 10.9 14 12C14 13.1 13.1 14 12 14Z" />
</svg>
